_inc/images/systems/logos/pico-8.svg

<svg viewBox="0 0 264 44" xmlns="http://www.w3.org/2000/svg">
    <path d="M17.572 8.763h9.264v9.061h-9.264ZM.002 44.003h17.444l.072-17.645 26.482.01L43.896.031 9.102.033-.02 9.124ZM52.963.044h34.911v8.563h-8.612v26.571h8.587v8.783H52.956v-8.627h8.879l-.014-26.983-8.958.014Zm43.87 9.357 9.402-9.398h25.686v8.703h-17.419v26.567h17.235v8.676H97.023Zm61.735-.631h8.769v26.305h-8.769Zm-17.696 35.057h34.553l9.322-9.305V.033h-34.509l-9.234 9.216Zm52.915-26.329h17.521v8.797h-17.521v-8.797Zm43.936-8.689h17.871v8.826h-17.871Zm.031 17.512h17.87v8.826h-17.87ZM263.98 43.88V.003h-34.984v9.426l-8.699 8.681v25.837Z" style="fill:#fff"/>
</svg>

<?xml version="1.0" encoding="utf-8"?>
<svg viewBox="0 0 264 44" xmlns="http://www.w3.org/2000/svg">
  <path d="M 17.572 8.763 L 26.836 8.763 L 26.836 17.824 L 17.572 17.824 Z M 0.002 44.003 L 17.446 44.003 L 17.518 26.358 L 44 26.368 L 43.896 0.031 L 9.102 0.033 L -0.02 9.124 Z" style="fill: rgb(255, 255, 255);"/>
  <path d="M 52.963 0.044 L 87.874 0.044 L 87.874 8.607 L 79.262 8.607 L 79.262 35.178 L 87.849 35.178 L 87.849 43.961 L 52.956 43.961 L 52.956 35.334 L 61.835 35.334 L 61.821 8.351 L 52.863 8.365 Z" style="fill: rgb(255, 255, 255);"/>
  <path d="M 96.833 9.401 L 106.235 0.003 L 131.921 0.003 L 131.921 8.706 L 114.502 8.706 L 114.502 35.273 L 131.737 35.273 L 131.737 43.949 L 97.023 43.949 Z" style="fill: rgb(255, 255, 255);"/>
  <path d="M 158.568 8.77 L 167.337 8.77 L 167.337 35.075 L 158.568 35.075 Z M 140.872 43.827 L 175.425 43.827 L 184.747 34.522 L 184.747 0.033 L 150.238 0.033 L 141.004 9.249 Z" style="fill: rgb(255, 255, 255);"/>
  <path d="M 193.787 17.498 L 211.308 17.498 L 211.308 26.295 L 193.787 26.295 L 193.787 17.498 Z" style="fill: rgb(255, 255, 255);"/>
  <path d="M 237.723 8.809 L 255.594 8.809 L 255.594 17.635 L 237.723 17.635 Z M 237.754 26.321 L 255.624 26.321 L 255.624 35.147 L 237.754 35.147 Z M 263.98 43.88 L 263.98 0.003 L 228.996 0.003 L 228.996 9.429 L 220.297 18.11 L 220.297 43.947 Z" style="fill: rgb(255, 255, 255);"/>
</svg>
